context/brand-context/default/img/icons/alert.svg

<svg id="i-alert" viewBox="0 0 18 18" xmlns="http://www.w3.org/2000/svg"><path d="m4 10h2.5c.27614237 0 .5.2238576.5.5s-.22385763.5-.5.5h-3.08578644l-1.12132034 1.1213203c-.18753638.1875364-.29289322.4418903-.29289322.7071068v.1715729h14v-.1715729c0-.2652165-.1053568-.5195704-.2928932-.7071068l-1.7071068-1.7071067v-3.4142136c0-2.76142375-2.2385763-5-5-5-2.76142375 0-5 2.23857625-5 5zm3 4c0 1.1045695.8954305 2 2 2s2-.8954305 2-2zm-5 0c-.55228475 0-1-.4477153-1-1v-.1715729c0-.530433.21071368-1.0391408.58578644-1.4142135l1.41421356-1.4142136v-3c0-3.3137085 2.6862915-6 6-6s6 2.6862915 6 6v3l1.4142136 1.4142136c.3750727.3750727.5857864.8837805.5857864 1.4142135v.1715729c0 .5522847-.4477153 1-1 1h-4c0 1.6568542-1.3431458 3-3 3-1.65685425 0-3-1.3431458-3-3z" fill="currentColor" fill-rule="evenodd"/></svg>

<svg id="i-alert" viewBox="0 0 18 18" xmlns="http://www.w3.org/2000/svg"><path d="M4 10h2.5a.5.5 0 1 1 0 1H3.414l-1.121 1.121a1 1 0 0 0-.293.707V13h14v-.172a1 1 0 0 0-.293-.707L14 10.414V7A5 5 0 0 0 4 7zm3 4a2 2 0 1 0 4 0zm-5 0a1 1 0 0 1-1-1v-.172a2 2 0 0 1 .586-1.414L3 10V7a6 6 0 1 1 12 0v3l1.414 1.414A2 2 0 0 1 17 12.828V13a1 1 0 0 1-1 1h-4a3 3 0 0 1-6 0z" fill="currentColor" fill-rule="evenodd"/></svg>
